!!!!SEGMENT: pl-wtm--r-1586_stefani-jozef--ave-maria.krn
!!!cenid: 18xx:2341
!!!COM: Stefani, Józef
!!!COM-rismid: pe30024097
!!!CDT: 1800/04/16-1876/03/19
!!!CNT: Polish
!!!OTL: Ave Maria
!!!PDT:
!!!AGN: Sacred
!!!SMS-siglum: PL-Wtm
!!!SMS-shelfmark: R 1586
!!!SMS-shelfwork: W
!!!SMS-variant:
!!!SMS-altvar:
!!!NIFC-rismid: 1001115599
!!!URL-scan: http://repozytorium.nifc.pl/skany/pl-wtm-nut--r1586
!!!ONB-nifc:
!!!OMD: Andante
**kern	**kern	**kern	**dynam	**kern	**text	**dynam	**kern	**text	**dynam	**kern	**dynam
*	*	*group1	*	*group1	*	*	*	*	*	*	*
*	*	*I""Choro	*	*I""Choro	*	*	*	*	*	*	*
*part5	*part5	*part4	*part4	*part3	*part3	*	*part2	*part2	*part2	*part1	*part1
*staff6	*staff5	*staff4	*	*staff3	*staff3	*	*staff2	*staff2	*	*staff1	*
*I"Organo	*I"Organo	*	*	*	*	*	*I"Voce Solo	*	*	*I"Violino Solo	*
*>[A,B,B1,B,B2,C]	*>[A,B,B1,B,B2,C]	*>[A,B,B1,B,B2,C]	*>[A,B,B1,B,B2,C]	*>[A,B,B1,B,B2,C]	*>[A,B,B1,B,B2,C]	*>[A,B,B1,B,B2,C]	*>[A,B,B1,B,B2,C]	*>[A,B,B1,B,B2,C]	*>[A,B,B1,B,B2,C]	*>[A,B,B1,B,B2,C]	*>[A,B,B1,B,B2,C]
*>A	*>A	*>A	*>A	*>A	*>A	*>A	*>A	*>A	*>A	*>A	*>A
*clefF4	*clefG2	*clefF4	*	*clefG2	*	*	*clefG2	*	*	*clefG2	*
*k[b-]	*k[b-]	*k[b-]	*	*k[b-]	*	*	*k[b-]	*	*	*k[b-]	*
*M3/4	*M3/4	*M3/4	*	*M3/4	*	*	*M3/4	*	*	*M3/4	*
=1	=1	=1	=1	=1	=1	=1	=1	=1	=1	=1	=1
.	.	.	.	.	.	.	.	.	.	8qa/	.
8F 8FF/	8r	2.ryy	.	2.ryy	.	.	2.ryy	.	.	(8.aa\L	.
8r	8a 8f 8c/	.	.	.	.	.	.	.	.	.	.
.	.	.	.	.	.	.	.	.	.	(16aa\Jk)	.
8AA\	8r	.	.	.	.	.	.	.	.	4ff\)	.
8r	8f 8c 8F</	.	.	.	.	.	.	.	.	.	.
8BB-\	8r	.	.	.	.	.	.	.	.	4gg\	.
8r	8g 8d 8B-</	.	.	.	.	.	.	.	.	.	.
=2	=2	=2	=2	=2	=2	=2	=2	=2	=2	=2	=2
8C\	8r	2.ryy	.	2.ryy	.	.	2.ryy	.	.	(4.ccT\	.
8r	8c 8B-< 8G</	.	.	.	.	.	.	.	.	.	.
8C\	8r	.	.	.	.	.	.	.	.	.	.
8r	8c 8B-< 8G</	.	.	.	.	.	.	.	.	16dd\LL	.
.	.	.	.	.	.	.	.	.	.	16ee\JJ	.
8F\	8r	.	.	.	.	.	.	.	.	4ff\)	.
8r	8c 8A</	.	.	.	.	.	.	.	.	.	.
!!LO:LB:g=original
=3	=3	=3	=3	=3	=3	=3	=3	=3	=3	=3	=3
8C\	8r	2.ryy	.	2.ryy	.	.	2.ryy	.	.	([4gg\	.
8r	8e 8c 8G</	.	.	.	.	.	.	.	.	.	.
*rep	*	*	*	*	*	*	*	*	*	*Xtuplet	*
8C\	8r	.	.	.	.	.	.	.	.	12gg\L]	.
.	.	.	.	.	.	.	.	.	.	12ff#X\	.
8r	8e 8c 8G</	.	.	.	.	.	.	.	.	.	.
.	.	.	.	.	.	.	.	.	.	12gg\J)	.
.	.	.	.	.	.	.	.	.	.	(>8qbb-/	.
*Xrep	*	*	*	*	*	*	*	*	*	*	*
*rep	*	*	*	*	*	*	*	*	*	*	*
8C\	8r	.	.	.	.	.	.	.	.	12aa\L	.
.	.	.	.	.	.	.	.	.	.	12gg#X\	.
8r	8f 8c 8A</	.	.	.	.	.	.	.	.	.	.
.	.	.	.	.	.	.	.	.	.	12aa\J)	.
*Xrep	*	*	*	*	*	*	*	*	*	*	*
=4	=4	=4	=4	=4	=4	=4	=4	=4	=4	=4	=4
8C\	8r	2.ryy	.	2.ryy	.	.	2.ryy	.	.	(8.ccc\L	.
8r	8e 8c 8G</	.	.	.	.	.	.	.	.	.	.
.	.	.	.	.	.	.	.	.	.	16bb-\Jk)	.
*rep	*	*	*	*	*	*	*	*	*	*	*
8C\	8r	.	.	.	.	.	.	.	.	8gg\	.
8r	8e 8c 8G</	.	.	.	.	.	.	.	.	8r	.
*Xrep	*	*	*	*	*	*	*	*	*	*	*
*rep	*	*	*	*	*	*	*	*	*	*	*
8C\	8r	.	.	.	.	.	.	.	.	4gg\	.
8r	8e 8c 8G</	.	.	.	.	.	.	.	.	.	.
*Xrep	*	*	*	*	*	*	*	*	*	*	*
=5	=5	=5	=5	=5	=5	=5	=5	=5	=5	=5	=5
*2\right	*	*	*	*	*	*	*	*	*	*	*
2D 2DD\	8r	2.ryy	.	2.ryy	.	.	2.ryy	.	.	16ff\LL	.
.	.	.	.	.	.	.	.	.	.	(32gg\L	.
.	.	.	.	.	.	.	.	.	.	32aa\	.
.	8fL 8A< 8F</	.	.	.	.	.	.	.	.	32bb-\	.
.	.	.	.	.	.	.	.	.	.	32ccc\	.
.	.	.	.	.	.	.	.	.	.	32ddd\	.
.	.	.	.	.	.	.	.	.	.	32eee\JJJ)	.
.	8f 8A< 8F</	.	.	.	.	.	.	.	.	4fff\	.
.	8fJ 8A< 8F</	.	.	.	.	.	.	.	.	.	.
4D-X 4DD-X\	4f 4Bn< 4G</	.	.	.	.	.	.	.	.	4bbn\	.
=6	=6	=6	=6	=6	=6	=6	=6	=6	=6	=6	=6
[>2.C [2.CC\	8eL 8c/	2.ryy	.	2.ryy	.	.	2.ryy	.	.	(16ccc\LL	.
.	.	.	.	.	.	.	.	.	.	16gg\)	.
.	8G</J	.	.	.	.	.	.	.	.	16ee\	.
.	.	.	.	.	.	.	.	.	.	16gg\JJ	.
*	*rep	*	*	*	*	*	*	*	*	*	*
.	8eL 8c/	.	.	.	.	.	.	.	.	(16ccc\LL	.
.	.	.	.	.	.	.	.	.	.	16eee\)	.
.	8G</J	.	.	.	.	.	.	.	.	16ddd\	.
.	.	.	.	.	.	.	.	.	.	16ccc\JJ	.
*	*Xrep	*	*	*	*	*	*	*	*	*	*
.	8fL 8d/	.	.	.	.	.	.	.	.	16bbn\LL	.
.	.	.	.	.	.	.	.	.	.	16fff\	.
.	8G</J	.	.	.	.	.	.	.	.	16ddd\	.
.	.	.	.	.	.	.	.	.	.	16bb\JJ	.
!!LO:LB:g=original
=7	=7	=7	=7	=7	=7	=7	=7	=7	=7	=7	=7
2.C] 2.CC\]	8eL 8c/	2.ryy	.	2.ryy	.	.	2.ryy	.	.	16ccc\LL	.
.	.	.	.	.	.	.	.	.	.	16gg\	.
.	8G</J	.	.	.	.	.	.	.	.	16ee\	.
.	.	.	.	.	.	.	.	.	.	16gg\JJ	.
*	*rep	*	*	*	*	*	*	*	*	*	*
.	8eL 8c/	.	.	.	.	.	.	.	.	16ccc\LL	.
.	.	.	.	.	.	.	.	.	.	16eee\	.
.	8G</J	.	.	.	.	.	.	.	.	16ddd\	.
.	.	.	.	.	.	.	.	.	.	16ccc\JJ	.
*	*Xrep	*	*	*	*	*	*	*	*	*	*
.	8fL 8d/	.	.	.	.	.	.	.	.	16bbn\LL	.
.	.	.	.	.	.	.	.	.	.	16fff\	.
.	8G</J	.	.	.	.	.	.	.	.	16ddd\	.
.	.	.	.	.	.	.	.	.	.	16bb\JJ	.
=8	=8	=8	=8	=8	=8	=8	=8	=8	=8	=8	=8
8C 8CC\	8e 8c 8G</	2.ryy	.	2.ryy	.	.	2.ryy	.	.	16ccc\LL	.
.	.	.	.	.	.	.	.	.	.	16bbn\	.
8r	8r	.	.	.	.	.	.	.	.	16ddd\	.
.	.	.	.	.	.	.	.	.	.	16ccc\JJ	.
4r	4r	.	.	.	.	.	.	.	.	16bb-X\LL	.
.	.	.	.	.	.	.	.	.	.	16aa\	.
.	.	.	.	.	.	.	.	.	.	16gg\	.
.	.	.	.	.	.	.	.	.	.	16ff\JJ	.
4r	4r	.	.	.	.	.	.	.	.	16ee\LL	.
.	.	.	.	.	.	.	.	.	.	16dd\	.
.	.	.	.	.	.	.	.	.	.	16cc\	.
.	.	.	.	.	.	.	.	.	.	16bn\JJ	.
!!LO:LB:g=original
=9	=9	=9	=9	=9	=9	=9	=9	=9	=9	=9	=9
2.r	2.r	2.ryy	.	2.ryy	.	.	2.ryy	.	.	(>16b-/LL	.
.	.	.	.	.	.	.	.	.	.	16a/	.
.	.	.	.	.	.	.	.	.	.	16g/	.
.	.	.	.	.	.	.	.	.	.	16f/JJ	.
.	.	.	.	.	.	.	.	.	.	16e/LL	.
.	.	.	.	.	.	.	.	.	.	16c/	.
.	.	.	.	.	.	.	.	.	.	16Bn/	.
.	.	.	.	.	.	.	.	.	.	16c/JJ	.
.	.	.	.	.	.	.	.	.	.	16d';/LL)	.
.	.	.	.	.	.	.	.	.	.	16e';/	.
.	.	.	.	.	.	.	.	.	.	16f';/	.
.	.	.	.	.	.	.	.	.	.	16g';/JJ	.
=10	=10	=10	=10	=10	=10	=10	=10	=10	=10	=10	=10
!	!	!	!	!	!	!	!LO:TX:a:t=Voce	!	!	!	!
8F 8FF/	8r	2.ryy	.	2.ryy	.	.	8.a/	Zdro-	.	2.ryy	.
8r	8a 8f 8c/	.	.	.	.	.	.	.	.	.	.
.	.	.	.	.	.	.	16a/	-waś	.	.	.
8AA\	8r	.	.	.	.	.	4f/	pan-	.	.	.
8r	8f 8c 8F</	.	.	.	.	.	.	.	.	.	.
8BB-\	8r	.	.	.	.	.	4g/	-no	.	.	.
8r	8g 8d 8B-</	.	.	.	.	.	.	.	.	.	.
=11	=11	=11	=11	=11	=11	=11	=11	=11	=11	=11	=11
8C\	8r	2.ryy	.	2.ryy	.	.	4.c/	Ma-	.	2.ryy	.
8r	8c 8B-< 8G</	.	.	.	.	.	.	.	.	.	.
8C\	8r	.	.	.	.	.	.	.	.	.	.
8r	8c 8B-< 8G</	.	.	.	.	.	16d/LL	-ry-	.	.	.
.	.	.	.	.	.	.	16e/JJ	.	.	.	.
8F\	8r	.	.	.	.	.	4f/	-a	.	.	.
8r	8c 8B-< 8G</	.	.	.	.	.	.	.	.	.	.
!!LO:PB:g=original
=12	=12	=12	=12	=12	=12	=12	=12	=12	=12	=12	=12
!	!	!	!	!	!	!	!LO:TX:a:t=Voce	!	!	!LO:TX:a:t=V&colon; Solo	!
8C\	8r	2.ryy	.	2.ryy	.	.	([4g/	ła-	.	([4gg\	.
8r	8e 8c 8G</	.	.	.	.	.	.	.	.	.	.
*rep	*	*	*	*	*	*	*Xtuplet	*	*	*tuplet	*
!	!	!	!	!	!	!	!	!	!	!LO:TUP:a:problem:klamra łukowa	!
8C\	8r	.	.	.	.	.	12g/L]	.	.	12gg\L]	.
.	.	.	.	.	.	.	12f#X/	.	.	12ff#X\	.
8r	8e 8c 8G</	.	.	.	.	.	.	.	.	.	.
.	.	.	.	.	.	.	12g/J)	.	.	12gg\J	.
.	.	.	.	.	.	.	.	.	.	8qbb-/	.
*Xrep	*	*	*	*	*	*	*	*	*	*	*
*rep	*	*	*	*	*	*	*	*	*	*	*
!	!	!	!	!	!	!	!	!	!	!LO:TUP:a:problem:klamra łukowa	!
8C\	8r	.	.	.	.	.	(12a/L	-skiś	.	12aa\L	.
.	.	.	.	.	.	.	12g#X/	.	.	12gg#X\	.
8r	8e 8c 8A</	.	.	.	.	.	.	.	.	.	.
.	.	.	.	.	.	.	12a/J)	.	.	12aa\J	.
*Xrep	*	*	*	*	*	*	*	*	*	*	*
=13	=13	=13	=13	=13	=13	=13	=13	=13	=13	=13	=13
8C\	8r	2.ryy	.	2.ryy	.	.	(8.cc/L	peł-	.	(8.ccc\L)	.
8r	8e 8c 8G</	.	.	.	.	.	.	.	.	.	.
.	.	.	.	.	.	.	16b-/Jk)	.	.	16bb-\Jk)	.
*rep	*rep	*	*	*	*	*	*	*	*	*	*
8C\	8r	.	.	.	.	.	8g/	-na,	.	8gg\	.
8r	8e 8c 8G</	.	.	.	.	.	8r	.	.	8r	.
*Xrep	*Xrep	*	*	*	*	*	*	*	*	*	*
*rep	*rep	*	*	*	*	*	*	*	*	*	*
8C\	8r	.	.	.	.	.	4g/	Pan	.	4r	.
8r	8e 8c 8G</	.	.	.	.	.	.	.	.	.	.
*Xrep	*Xrep	*	*	*	*	*	*	*	*	*	*
=14	=14	=14	=14	=14	=14	=14	=14	=14	=14	=14	=14
*^	*^	*	*	*	*	*	*	*	*	*	*
4.D 4.DD/	4.ryy	8r	4.ryy	2.ryy	.	2.ryy	.	.	4f/	z to-	.	2.r	.
.	.	(>8f'>L 8d 8A</	.	.	.	.	.	.	.	.	.	.	.
.	.	8f'J 8d 8A</)	.	.	.	.	.	.	8f/	-bą	.	.	.
8F/	4.BBn\	8a/L	4.d\	.	.	.	.	.	8a/	bło-	.	.	.
4G/	.	8g/	.	.	.	.	.	.	8g/	-go-	.	.	.
.	.	8f/J	.	.	.	.	.	.	8f/	-sła-	.	.	.
!!LO:LB:g=original
=15	=15	=15	=15	=15	=15	=15	=15	=15	=15	=15	=15	=15	=15
.	.	.	.	.	.	.	.	.	(8qf/	.	.	.	.
8r	4C\	8r	4.ryy	2.ryy	.	2.ryy	.	.	4e/)	-wio-	.	2.r	.
[4G/	.	8eL 8c/	.	.	.	.	.	.	.	.	.	.	.
.	8r	8eJ 8c/	.	.	.	.	.	.	8e/	-naś	.	.	.
8G/]	4.C#X\	8b-X/L	4.e\	.	.	.	.	.	8b-X/	Ty	.	.	.
4A/	.	8a/	.	.	.	.	.	.	8a/	mię-	.	.	.
.	.	8g/J	.	.	.	.	.	.	8g/	-dzy	.	.	.
*v	*v	*	*	*	*	*	*	*	*	*	*	*	*
*	*v	*v	*	*	*	*	*	*	*	*	*	*
=16	=16	=16	=16	=16	=16	=16	=16	=16	=16	=16	=16
8D\	8r	2.ryy	.	2.ryy	.	.	2f/	nie	.	2.r	.
8r	8f 8d 8A</	.	.	.	.	.	.	.	.	.	.
8D\	8r	.	.	.	.	.	.	.	.	.	.
8r	8f 8d 8A</	.	.	.	.	.	.	.	.	.	.
*	*	*	*	*	*	*	*tuplet	*	*	*	*
!	!	!	!	!	!	!	!LO:TUP:b:problem:klamra łukowa	!	!	!	!
8Cn\	8r	.	.	.	.	.	12g/L	wia-	.	.	.
.	.	.	.	.	.	.	12f/	.	.	.	.
8r	8g 8e 8c/	.	.	.	.	.	.	.	.	.	.
.	.	.	.	.	.	.	12g/J	.	.	.	.
=17	=17	=17	=17	=17	=17	=17	=17	=17	=17	=17	=17
*	*^	*	*	*	*	*	*	*	*	*	*
4F 4FF\	8r	4.ryy	2.ryy	.	2.ryy	.	.	4a/	-sta-	.	4r	.
.	8aL 8f [<8c/	.	.	.	.	.	.	.	.	.	.	.
8r	8aJ 8f 8c/]	.	.	.	.	.	.	8a/	-mi	.	8r	.
8F\L	8cc/L	4.f\	.	.	.	.	.	8cc\	i	.	(8ccc\L	.
8B-\	8dd/	.	.	.	.	.	.	8dd\	bło-	.	8ddd\	.
8A\J	8cc/J	.	.	.	.	.	.	8cc\	-go-	.	8ccc\J)	.
=18	=18	=18	=18	=18	=18	=18	=18	=18	=18	=18	=18	=18
4G\	8.cc/L	8d\L	2.ryy	.	2.ryy	.	.	(8.cc/L	-sła-	.	(8.ccc\L	.
.	.	8e\J	.	.	.	.	.	.	.	.	.	.
.	16b-/Jk	.	.	.	.	.	.	16b-/Jk)	.	.	16bb-\Jk	.
8F\	8a/	8f\	.	.	.	.	.	8a/	-wion	.	8aa\)	.
.	.	.	.	.	.	.	.	.	.	.	(8qbb-/	.
8F\L	8aL 8f/	4.ryy	.	.	.	.	.	8a/	o-	.	8aa\L)	.
8C\	8g 8e/	.	.	.	.	.	.	8g/	-woc	.	8gg'\	.
8F\J	8aJ 8f/	.	.	.	.	.	.	8a/	ży-	.	8aa'\J	.
*	*v	*v	*	*	*	*	*	*	*	*	*	*
!!LO:LB:g=original
=19	=19	=19	=19	=19	=19	=19	=19	=19	=19	=19	=19
*	*	*	*	*	*	*	*	*	*	*2\right	*
8D\	8r	2.ryy	.	2.ryy	.	.	8f/	-wo-	.	2ff\	.
8r	8f 8d 8A</	.	.	.	.	.	8f/	-ta	.	.	.
8D\	8r	.	.	.	.	.	4f/	Twe-	.	.	.
8r	8f 8d 8A</	.	.	.	.	.	.	.	.	.	.
8C\	8r	.	.	.	.	.	4g/	-go	.	4ggT\	.
8r	8g 8e 8c/	.	.	.	.	.	.	.	.	.	.
=20	=20	=20	=20	=20	=20	=20	=20	=20	=20	=20	=20
4F 4FF\	8r	2.ryy	.	2.ryy	.	.	4a/	Je-	.	(16aa\LL	.
.	.	.	.	.	.	.	.	.	.	16ff\	.
.	8aL 8f [8c/	.	.	.	.	.	.	.	.	16aa\	.
.	.	.	.	.	.	.	.	.	.	16ccc\JJ	.
8r	8aJ 8f 8c/]	.	.	.	.	.	4a/	-zus,	.	8fff\)	.
8F\L	8aL 8f 8c/	.	.	.	.	.	.	.	.	8r	.
8E\	8g 8c#X/	.	.	.	.	.	4r	.	.	4r	.
!	!LO:TX:b:t=V&colon; S&colon;	!	!	!	!	!	!	!	!	!	!
8D\J	8fJ 8d/	.	.	.	.	.	.	.	.	.	.
!!LO:PB:g=original
=21	=21	=21	=21	=21	=21	=21	=21	=21	=21	=21	=21
*	*^	*	*	*	*	*	*	*	*	*	*
8C#X/	8eL 8A/	2ryy	2.ryy	.	2.ryy	.	.	4.e/	Świę-	.	2.r	.
8r	8eJ 8A/	.	.	.	.	.	.	.	.	.	.	.
8C#/	8r	.	.	.	.	.	.	.	.	.	.	.
8r	8e 8A/	.	.	.	.	.	.	8e/	-ta	.	.	.
8D/L	8fL 8A/	4A\	.	.	.	.	.	8f/	Ma-	.	.	.
8Cn/J	8e/J	.	.	.	.	.	.	8e/	-rya	.	.	.
=22	=22	=22	=22	=22	=22	=22	=22	=22	=22	=22	=22	=22
8D/L	8fL 8A/	4A\	2.ryy	.	2.ryy	.	.	8f/	ma-	.	4r	.
8Cn/J	8e/J	.	.	.	.	.	.	8e/	-tko	.	.	.
8BB-X/	8d/L	8B-X\L	.	.	.	.	.	4d/	ma-	.	4r	.
8r	8d/J	8B-\J	.	.	.	.	.	.	.	.	.	.
4B- 4BB-\	8r	4ryy	.	.	.	.	.	4dd\	-tko	.	4dd\	.
.	8dd 8d/	.	.	.	.	.	.	.	.	.	.	.
*	*v	*v	*	*	*	*	*	*	*	*	*	*
=23	=23	=23	=23	=23	=23	=23	=23	=23	=23	=23	=23
*	*	*	*	*	*	*	*2\right	*	*	*	*
8A 8AA\	8r	2.ryy	.	2.ryy	.	.	2cc#X\	Bo-	.	(16cc#X\LL	.
.	.	.	.	.	.	.	.	.	.	16a\	.
8r	8cc#X 8a 8e/	.	.	.	.	.	.	.	.	16cc#\	.
.	.	.	.	.	.	.	.	.	.	16ee\JJ	.
*rep	*	*	*	*	*	*	*	*	*	*	*
8A 8AA\	8r	.	.	.	.	.	.	.	.	4aa\)	.
8r	8cc# 8a 8e/	.	.	.	.	.	.	.	.	.	.
*Xrep	*	*	*	*	*	*	*	*	*	*	*
*rep	*	*	*	*	*	*	*	*	*	*	*
8A 8AA\	8r	.	.	.	.	.	4a/	-ża	.	4r	.
8r	8a 8e 8c#X/	.	.	.	.	.	.	.	.	.	.
*Xrep	*	*	*	*	*	*	*	*	*	*	*
=24	=24	=24	=24	=24	=24	=24	=24	=24	=24	=24	=24
8G 8GG/	8r	2.ryy	.	2.ryy	.	.	4b-X/	módl	.	2.r	.
8r	8b-X 8e 8cn/	.	.	.	.	.	.	.	.	.	.
8G 8GG/	8r	.	.	.	.	.	4.b-/	się	.	.	.
8r	8b- 8e 8c/	.	.	.	.	.	.	.	.	.	.
8F 8FF/	8r	.	.	.	.	.	.	.	.	.	.
8r	8a 8f 8c/	.	.	.	.	.	8a/	za	.	.	.
!!LO:LB:g=original
=25	=25	=25	=25	=25	=25	=25	=25	=25	=25	=25	=25
8B- 8BB-\	8r	2.ryy	.	2.ryy	.	.	4dd\	na-	.	2.r	.
8r	8dd 8b- 8f/	.	.	.	.	.	.	.	.	.	.
8B- 8BB-\	8r	.	.	.	.	.	4.dd\	-mi	.	.	.
8r	8dd 8b- 8f/	.	.	.	.	.	.	.	.	.	.
8A 8AA\	8r	.	.	.	.	.	.	.	.	.	.
8r	8cc 8f/	.	.	.	.	.	8cc\	grze-	.	.	.
=26	=26	=26	=26	=26	=26	=26	=26	=26	=26	=26	=26
*	*^	*	*	*	*	*	*	*	*	*	*
!LO:S:s=2:note:problem:note-level slur	!	!	!	!	!	!	!	!	!	!	!	!
(4G (>4GG\	8.cc/L	8d\L	2.ryy	.	2.ryy	.	.	(8.cc\L	-szne-	.	2.r	.
.	.	8e\J	.	.	.	.	.	.	.	.	.	.
.	16b-/Jk	.	.	.	.	.	.	16b-X\Jk)	.	.	.	.
8F 8FF\))	8a/	8f\	.	.	.	.	.	8a\	-mi	.	.	.
8r	8r	8ryy	.	.	.	.	.	8r	.	.	.	.
4D-X 4DD-X\	4f 4Bn 4G</	4ryy	.	.	.	.	.	8f/	te-	.	.	.
.	.	.	.	.	.	.	.	8g/	-raz	.	.	.
*	*v	*v	*	*	*	*	*	*	*	*	*	*
=27	=27	=27	=27	=27	=27	=27	=27	=27	=27	=27	=27
8C 8CC\	8r	2.ryy	.	2.ryy	.	.	4.a/	i	.	2.r	.
8r	8f 8c 8A</	.	.	.	.	.	.	.	.	.	.
*rep	*rep	*	*	*	*	*	*	*	*	*	*
8C 8CC\	8r	.	.	.	.	.	.	.	.	.	.
8r	8f 8c 8A</	.	.	.	.	.	8a/	w go-	.	.	.
.	.	.	.	.	.	.	(8qcc/	-dzi-	.	.	.
*Xrep	*Xrep	*	*	*	*	*	*	*	*	*	*
*rep	*rep	*	*	*	*	*	*	*	*	*	*
8C 8CC\	8r	.	.	.	.	.	8b-/)	.	.	.	.
8r	8f 8c 8A</	.	.	.	.	.	8a/	-nę	.	.	.
*Xrep	*Xrep	*	*	*	*	*	*	*	*	*	*
!!LO:LB:g=original
=28	=28	=28	=28	=28	=28	=28	=28	=28	=28	=28	=28
8BB- 8BBB-/	8r	2.ryy	.	2.ryy	.	.	8a/	śmier-	.	2.r	.
8r	8g 8d 8B-/	.	.	.	.	.	8g/	-ci	.	.	.
8BB- 8BBB-/	8r	.	.	.	.	.	4d/	na-	.	.	.
8r	8d 8B-/	.	.	.	.	.	.	.	.	.	.
8C 8CC/	8r	.	.	.	.	.	4e/	-szej	.	.	.
8r	8e 8c 8B-< 8G</	.	.	.	.	.	.	.	.	.	.
=29	=29	=29	=29	=29	=29	=29	=29	=29	=29	=29	=29
4.C 4.FF/	4g 4e 4B-/	2.ryy	.	2.ryy	.	.	4g/	a-	.	4r	.
.	16f 16c 16A/	.	.	.	.	.	8f/	-men.	.	16r	.
.	(16f/LL	.	.	.	.	.	.	.	.	(16ff\LL	.
8r	16e/	.	.	.	.	.	8r	.	.	16ee\	.
.	16f/JJ	.	.	.	.	.	.	.	.	16ff\JJ	.
4r	16g/LL	.	.	.	.	.	4r	.	.	16gg\LL	.
.	16a/	.	.	.	.	.	.	.	.	16aa\	.
.	16b-/	.	.	.	.	.	.	.	.	16bb-X\	.
.	16bn/JJ)	.	.	.	.	.	.	.	.	16bbn\JJ)	.
!!LO:PB:g=original
=30!|:	=30!|:	=30!|:	=30!|:	=30!|:	=30!|:	=30!|:	=30!|:	=30!|:	=30!|:	=30!|:	=30!|:
*>B	*>B	*>B	*>B	*>B	*>B	*>B	*>B	*>B	*>B	*>B	*>B
!	!	!LO:TX:a:i:t=Tenori	!	!LO:TX:a:i:t=Soprano	!	!	!	!	!	!LO:TX:a:t=V&colon; Solo	!
!	!	!LO:TX:b:i:t=Basſi	!	!LO:TX:b:i:t=Alto	!	!	!	!	!	!	!
8C/	8cc 8b- 8g 8e/	8B- 8G 8C\	p	8cc 8e/	Módl	p	2.r	.	.	[2.cccT\	.
8r	8r	8r	.	8r	.	.	.	.	.	.	.
*rep	*rep	*	*	*	*	*	*	*	*	*	*
8C/	8cc 8b- 8g 8e/	8B- 8G 8C\	.	8cc 8e/	się	.	.	.	.	.	.
8r	8r	8r	.	8r	.	.	.	.	.	.	.
*Xrep	*Xrep	*	*	*	*	*	*	*	*	*	*
*rep	*rep	*	*	*	*	*	*	*	*	*	*
8C/	8cc 8b- 8g 8e/	8B- 8G 8C\	.	8cc 8e/	za	.	.	.	.	.	.
8r	8r	8r	.	8r	.	.	.	.	.	.	.
*Xrep	*Xrep	*	*	*	*	*	*	*	*	*	*
=31	=31	=31	=31	=31	=31	=31	=31	=31	=31	=31	=31
*	*	*	*	*^	*	*	*	*	*	*	*
8F 8FF/	8cc 8a 8f/	4A 4F\	.	8.cc/L	4f\	na-	.	4r	.	.	8.ccc\L]	.
8r	8r	.	.	.	.	.	.	.	.	.	.	.
.	.	.	.	16dd/Jk	.	.	.	.	.	.	16ddd\Jk|	.
8F 8FF/	8cc 8a 8f/	8A 8F\	.	8cc/	8f\	-mi	.	8r	.	.	8ccc\|	.
8r	8r	8r	.	8r	8ryy	.	.	8c/	módl	.	8r	.
4r	4r	4r	.	4r	4ryy	.	.	8f/	się	.	4r	.
.	.	.	.	.	.	.	.	8a/	za	.	.	.
*	*	*	*	*v	*v	*	*	*	*	*	*	*
=32	=32	=32	=32	=32	=32	=32	=32	=32	=32	=32	=32
8C/	8cc 8b- 8g 8e/	8B- 8G 8C\	.	8cc 8e/	módl-	.	(>4.c/	na-	.	[2.cccT\	.
8r	8r	8r	.	8r	.	.	.	.	.	.	.
*rep	*rep	*	*	*	*	*	*	*	*	*	*
8C/	8cc 8b- 8g 8e/	8B- 8G 8C\	.	8cc 8e/	-się	.	.	.	.	.	.
8r	8r	8r	.	8r	.	.	16Bn/LL	.	.	.	.
.	.	.	.	.	.	.	16c/JJ	.	.	.	.
.	.	.	.	.	.	.	&(8qd/	.	.	.	.
*Xrep	*Xrep	*	*	*	*	*	*	*	*	*	*
*rep	*rep	*	*	*	*	*	*	*	*	*	*
8C/	8cc 8b- 8g 8e/	8B- 8G 8C\	.	8cc 8e/	za	.	8.d/L)	.	.	.	.
8r	8r	8r	.	8r	.	.	.	.	.	.	.
.	.	.	.	.	.	.	16c/Jk&)	.	.	.	.
*Xrep	*Xrep	*	*	*	*	*	*	*	*	*	*
=33	=33	=33	=33	=33	=33	=33	=33	=33	=33	=33	=33
*	*	*	*	*^	*	*	*	*	*	*	*
8F 8FF/	8cc 8a 8f/	4A 4F\	.	8.cc/L	4f\	na-	.	8c/	-mi	.	8.ccc\L]	.
8r	8r	.	.	.	.	.	.	8r	.	.	.	.
.	.	.	.	16dd/Jk	.	-mi	.	.	.	.	16ddd\Jk|	.
8F 8FF/	8cc 8a 8f/	8A 8F\	.	8cc/	8f\	.	.	8r	.	.	8ccc\|	.
8r	8r	8r	.	8r	8ryy	.	.	8c/	módl	.	8r	.
8r	8r	8r	.	8r	8ryy	.	.	8a/	się	.	8r	.
8F 8FF/	8cc 8a 8f/	8A 8F\	.	8cc/	8f\	za	.	8f/	za	.	8ccc\	.
!!LO:LB:g=original
=34	=34	=34	=34	=34	=34	=34	=34	=34	=34	=34	=34	=34
8C/	8cc 8b-X 8g 8e/	8B- 8G 8C\	.	8cc 8e/	2ryy	na-	.	2cc\	na-	.	2cccT\	.
8r	8r	8r	.	8r	.	.	.	.	.	.	.	.
8C/	8cc 8b- 8g 8e/	8B- 8G 8C\	.	8cc 8e/	.	-mi	.	.	.	.	.	.
8r	8r	8r	.	8r	.	.	.	.	.	.	.	.
4B- 4G 4C\	(16cc\LL	4B- 4C\	.	4cc/	4g\	grze-	.	16cc\	-mi	.	16ccc\LL	.
.	32bn\L	.	.	.	.	.	.	(32bn\LLL	grze-	.	(32bbn\L	.
.	32cc\JJJ	.	.	.	.	.	.	32cc\JJJ	.	.	32ccc\JJJ	.
.	32cc#X\LLL	.	.	.	.	.	.	32cc#X\LLL	.	.	32ccc#X\LLL	.
.	32dd\	.	.	.	.	.	.	32dd\	.	.	32ddd\	.
.	32dd#X\	.	.	.	.	.	.	32dd#X\	.	.	32ddd#X\	.
.	32ee\JJJ)	.	.	.	.	.	.	32ee\JJJ)	.	.	32eee\JJJ	.
*	*	*	*	*v	*v	*	*	*	*	*	*	*
=35	=35	=35	=35	=35	=35	=35	=35	=35	=35	=35	=35
!	!	!	!	!	!	!	!	!	!LO:DY:a:rj	!	!LO:DY:rj
8.A-XL 8.F 8.D-X\	8.ffL 8.f/	8.A 8.D-X\	.	8.ff 8.f\	-szne-	.	8.ff\	-szne-	f	(16fff\LL)	f
.	.	.	.	.	.	.	.	.	.	16ff\)	.
.	.	.	.	.	.	.	.	.	.	(16ff\	.
16A-Jk 16F 16D-\	16ffJk 16f/	16A 16D-\	.	16ff 16f\	-mi	.	16ff\	-mi	.	16fff\JJ)	.
*rep	*rep	*	*	*	*	*	*	*	*	*rep	*
8.A-L 8.F 8.D-\	8.ffL 8.f/	8.A 8.D-\	.	8.ff 8.f\	te-	.	8.ff\	te-	.	(16fff\LL	.
.	.	.	.	.	.	.	.	.	.	16ff\)	.
.	.	.	.	.	.	.	.	.	.	(16ff\	.
16A-Jk 16F 16D-\	16ffJk 16f/	16A 16D-\	.	16ff 16f\	-raz	.	16ff\	-raz	.	16fff\JJ)	.
*Xrep	*Xrep	*	*	*	*	*	*	*	*	*Xrep	*
*rep	*	*	*	*	*	*	*	*	*	*	*
8.A-L 8.F 8.D-\	8.bnL 8.f/	8.A 8.D-\	.	8.bn 8.f/	i	.	8.bn\	i	.	(16fff\LL	.
.	.	.	.	.	.	.	.	.	.	16bbn\)	.
.	.	.	.	.	.	.	.	.	.	16bb'\	.
16A-Jk 16F 16D-\	16bJk 16f/	16A 16D-\	.	16b 16f/	w go-	.	16b\	w go-	.	16bb'\JJ	.
*Xrep	*	*	*	*	*	*	*	*	*	*	*
=36	=36	=36	=36	=36	=36	=36	=36	=36	=36	=36	=36
*	*^	*	*	*^	*	*	*	*	*	*	*
8An 8F 8C\	16dd/LL	8f\L	8An 8C\	.	16dd/LL	8f\	-dzi-	.	16dd\LL	-dzi-	.	(16ddd\LL	.
.	16cc/JJ	.	.	.	16cc/JJ	.	.	.	16cc\JJ	.	.	16ccc\)	.
16FF/	16a/	16f\Jk	8A 8C\	.	8a/	8f\	-nę	.	16a/LL	-nę	.	16fff\	.
16r	16r	16ryy	.	.	.	.	.	.	16cc/JJ	.	.	16aa\JJ	.
16AA/	16f 16c/	2ryy	4r	.	4r	2ryy	.	.	16f/	śmier-	.	16ccc\LL	.
16r	16r	.	.	.	.	.	.	.	16a/	-ci	.	16ff\	.
16C/	16c 16A</	.	.	.	.	.	.	.	16c/	na-	.	16aa\	.
16r	16r	.	.	.	.	.	.	.	16f/	-szej	.	16cc\JJ	.
4C 4CC\	4e 4c 4B-< 4G</	.	4B- 4C\	.	4e 4c/	.	a-	.	(8.a/L	a-	.	(8.cc\L	.
.	.	.	.	.	.	.	.	.	16g/Jk)	.	.	32dd\LL	.
.	.	.	.	.	.	.	.	.	.	.	.	32ee\JJJ	.
*	*v	*v	*	*	*v	*v	*	*	*	*	*	*	*
=37	=37	=37	=37	=37	=37	=37	=37	=37	=37	=37	=37
!LO:TX:a:t=Ia	!	!	!	!	!	!	!	!	!	!	!
*>B1	*>B1	*>B1	*>B1	*>B1	*>B1	*>B1	*>B1	*>B1	*>B1	*>B1	*>B1
8F 8FF\	8f 8c 8A</	8A 8F\	.	8f 8c/	-men	.	8f/	-men	.	8ff\)	.
8r	8r	8r	.	8r	.	.	8r	.	.	8r	.
8F 8FF\	16ff 16a 16f\	4r	.	4r	.	.	4r	.	.	16ff 16a\	.
.	(16f/LL	.	.	.	.	.	.	.	.	(16ff\LL	.
8r	16e/	.	.	.	.	.	.	.	.	16ee\	.
.	16f/JJ	.	.	.	.	.	.	.	.	16ff\JJ	.
4r	16g/LL	4r	.	4r	.	.	4r	.	.	16gg\LL	.
.	16a/	.	.	.	.	.	.	.	.	16aa\	.
.	16b-/	.	.	.	.	.	.	.	.	16bb-\	.
!	!LO:TX:b:t=V&colon;S&colon;	!	!	!	!	!	!	!	!	!	!
.	16bn/JJ)	.	.	.	.	.	.	.	.	16bbn\JJ)	.
!!LO:PB:g=original
=38:|!	=38:|!	=38:|!	=38:|!	=38:|!	=38:|!	=38:|!	=38:|!	=38:|!	=38:|!	=38:|!	=38:|!
!LO:TX:a:t=2da	!	!	!	!	!	!	!	!	!	!	!
*>B2	*>B2	*>B2	*>B2	*>B2	*>B2	*>B2	*>B2	*>B2	*>B2	*>B2	*>B2
*	*	*	*	*	*	*	*^	*	*	*	*
16F\LL	16f 16c 16A/	8A 8F\	.	8f 8c/	men	.	8f/	4ryy	men,	.	8ff\	.
16c\	16r	.	.	.	.	.	.	.	.	.	.	.
16A\	8r	8r	.	8r	.	.	8r	.	.	.	8r	.
16c\JJ	.	.	.	.	.	.	.	.	.	.	.	.
*rep	*	*	*	*	*	*	*	*	*	*	*	*
!	!	!	!	!	!	!	!LO:TX:a:t=Solo\n1. Soprano\n2. Soprano\n1°. Tenore	!	!	!	!	!
16F\LL	8.r	16A 16F\	.	16f 16c/	świę-	.	8.r	8.ryy	.	.	8.r	.
16c\	.	16A 16F\	.	16f 16c/	-ta	.	.	.	.	.	.	.
16A\	.	16A 16F\	.	16f 16c/	Ma-	.	.	.	.	.	.	.
16c\JJ	16aaKL 16a\	16A 16F\	.	16f 16c/	-rya	.	16a/KL	16a\KL	Świę-	.	(16aa\KL	.
*Xrep	*	*	*	*	*	*	*	*	*	*	*	*
*rep	*	*	*	*	*	*	*	*	*	*	*	*
16F\LL	8.ccc 8.cc\	16A 16F\	.	16f 16c/	ma-	.	8.cc/J	8.cc\J	.	.	8.ccc\)	.
16c\	.	16A 16F\	.	16f 16c/	-tko	.	.	.	.	.	.	.
16A\	.	16A 16F\	.	16f 16c/	Bo-	.	.	.	.	.	.	.
16c\JJ	16fffJk 16ff\	16A 16F\	.	16f 16c/	-ża	.	16ff/	16ff\	-ta	.	16fff'\Jk	.
*Xrep	*	*	*	*	*	*	*	*	*	*	*	*
=39	=39	=39	=39	=39	=39	=39	=39	=39	=39	=39	=39	=39
*>C	*>C	*>C	*>C	*>C	*>C	*>C	*>C	*>C	*>C	*>C	*>C	*>C
16F\LL	4ccc 4cc\	16A 16F\	.	16f 16c/	módl	.	4cc/	4cc\	Ma-	.	(4ccc\	.
*	*	*rep	*	*rep	*	*	*	*	*	*	*	*
16c\	.	16A 16F\	.	16f 16c/	się	.	.	.	.	.	.	.
*	*	*Xrep	*	*Xrep	*	*	*	*	*	*	*	*
*	*	*rep	*	*rep	*	*	*	*	*	*	*	*
16A\	.	16A 16F\	.	16f 16c/	za	.	.	.	.	.	.	.
*	*	*Xrep	*	*Xrep	*	*	*	*	*	*	*	*
*	*	*rep	*	*rep	*	*	*	*	*	*	*	*
16c\JJ	.	16A 16F\	.	16f 16c/	na-	.	.	.	.	.	.	.
*	*	*Xrep	*	*Xrep	*	*	*	*	*	*	*	*
*rep	*	*rep	*	*rep	*	*	*	*	*	*	*	*
16F\LL	8aa 8a\	16A 16F\	.	16f 16c/	-mi	.	8a/	8a\	-rya	.	8aa\)	.
*	*	*Xrep	*	*Xrep	*	*	*	*	*	*	*	*
*	*	*rep	*	*rep	*	*	*	*	*	*	*	*
16c\	.	16A 16F\	.	16f 16c/	grze-	.	.	.	.	.	.	.
*	*	*Xrep	*	*Xrep	*	*	*	*	*	*	*	*
*	*	*rep	*	*rep	*	*	*	*	*	*	*	*
16A\	16r	16A 16F\	.	16f 16c/	-szne-	.	16r	16ryy	.	.	16r	.
*	*	*Xrep	*	*Xrep	*	*	*	*	*	*	*	*
*	*	*rep	*	*rep	*	*	*	*	*	*	*	*
16c\JJ	16aaKL 16a\	16A 16F\	.	16f 16c/	-mi	.	16a/KL	16a\KL	Ma-	.	(16aa\KL	.
*Xrep	*	*Xrep	*	*Xrep	*	*	*	*	*	*	*	*
*rep	*	*rep	*	*rep	*	*	*	*	*	*	*	*
16F\LL	8.ccc 8.cc\	16A 16F\	.	16f 16c/	te-	.	8.cc/J	8.cc\J	.	.	8.ccc\)	.
*	*	*Xrep	*	*Xrep	*	*	*	*	*	*	*	*
*	*	*rep	*	*rep	*	*	*	*	*	*	*	*
16c\	.	16A 16F\	.	16f 16c/	-raz	.	.	.	.	.	.	.
*	*	*Xrep	*	*Xrep	*	*	*	*	*	*	*	*
*	*	*rep	*	*rep	*	*	*	*	*	*	*	*
16A\	.	16A 16F\	.	16f 16c/	o	.	.	.	.	.	.	.
*	*	*Xrep	*	*Xrep	*	*	*	*	*	*	*	*
*	*	*rep	*	*rep	*	*	*	*	*	*	*	*
16c\JJ	16fffJk 16ff\	16A 16F\	.	16f 16c/	w go-	.	16ff/	16ff\	-tko	.	16fff'\Jk	.
*Xrep	*	*Xrep	*	*Xrep	*	*	*	*	*	*	*	*
!!LO:LB:g=original
=40	=40	=40	=40	=40	=40	=40	=40	=40	=40	=40	=40	=40
16F\LL	4ccc 4cc\	16A 16F\	.	16f 16c/	-dzi-	.	(4cc/	4cc\	Bo-	.	(4ccc\	.
*	*	*rep	*	*rep	*	*	*	*	*	*	*	*
16c\	.	16A 16F\	.	16f 16c/	-nę	.	.	.	.	.	.	.
*	*	*Xrep	*	*Xrep	*	*	*	*	*	*	*	*
*	*	*rep	*	*rep	*	*	*	*	*	*	*	*
16A\	.	16A 16F\	.	16f 16c/	śmier-	.	.	.	.	.	.	.
*	*	*Xrep	*	*Xrep	*	*	*	*	*	*	*	*
*	*	*rep	*	*rep	*	*	*	*	*	*	*	*
16c\JJ	.	16A 16F\	.	16f 16c/	-ci	.	.	.	.	.	.	.
*	*	*Xrep	*	*Xrep	*	*	*	*	*	*	*	*
*rep	*	*rep	*	*rep	*	*	*	*	*	*	*	*
16F\LL	8aa 8a\	16A 16F\	.	16f 16c/	na-	.	8a/)	8a\	-ża	.	8aa\)	.
*	*	*Xrep	*	*Xrep	*	*	*	*	*	*	*	*
*	*	*rep	*	*rep	*	*	*	*	*	*	*	*
16c\	.	16A 16F\	.	16f 16c/	-szej	.	.	.	.	.	.	.
*	*	*Xrep	*	*Xrep	*	*	*	*	*	*	*	*
*	*	*rep	*	*rep	*	*	*	*	*	*	*	*
16A\	16r	16A 16F\	.	16f 16c/	a-	.	16r	16ryy	.	.	16r	.
*	*	*Xrep	*	*Xrep	*	*	*	*	*	*	*	*
*	*	*rep	*	*rep	*	*	*	*	*	*	*	*
16c\JJ	16aaKL 16a\	16A 16F\	.	16f 16c/	-men	.	16a/	16a\	módl	.	(16aa\KL	.
*Xrep	*	*Xrep	*	*Xrep	*	*	*	*	*	*	*	*
*rep	*	*rep	*	*rep	*	*	*	*	*	*	*	*
16F\LL	8.ccc 8.cc\	16A 16F\	.	16f 16c/	te-	.	8.cc/	8.cc\	się	.	8.ccc\)	.
*	*	*Xrep	*	*Xrep	*	*	*	*	*	*	*	*
*	*	*rep	*	*rep	*	*	*	*	*	*	*	*
16c\	.	16A 16F\	.	16f 16c/	-raz	.	.	.	.	.	.	.
*	*	*Xrep	*	*Xrep	*	*	*	*	*	*	*	*
*	*	*rep	*	*rep	*	*	*	*	*	*	*	*
16A\	.	16A 16F\	.	16f 16c/	i	.	.	.	.	.	.	.
*	*	*Xrep	*	*Xrep	*	*	*	*	*	*	*	*
*	*	*rep	*	*rep	*	*	*	*	*	*	*	*
16c\JJ	16fffJk 16ff\	16A 16F\	.	16f 16c/	w go-	.	16ff/	16ff\	za	.	16fff'\Jk	.
*Xrep	*	*Xrep	*	*Xrep	*	*	*	*	*	*	*	*
=41	=41	=41	=41	=41	=41	=41	=41	=41	=41	=41	=41	=41
16F\LL	4.ccc 4.cc\	16B- 16G\	.	16e 16c/	-dzi-	.	4.cc/	(>4.cc\	na-	.	4.ccc\	.
*	*	*rep	*	*rep	*	*	*	*	*	*	*	*
16c\	.	16B- 16G\	.	16e 16c/	-nę	.	.	.	.	.	.	.
*	*	*Xrep	*	*Xrep	*	*	*	*	*	*	*	*
*	*	*rep	*	*rep	*	*	*	*	*	*	*	*
16B-\	.	16B- 16G\	.	16e 16c/	śmier-	.	.	.	.	.	.	.
*	*	*Xrep	*	*Xrep	*	*	*	*	*	*	*	*
*	*	*rep	*	*rep	*	*	*	*	*	*	*	*
16c\JJ	.	16B- 16G\	.	16e 16c/	-ci	.	.	.	.	.	.	.
*	*	*Xrep	*	*Xrep	*	*	*	*	*	*	*	*
*rep	*	*rep	*	*rep	*	*	*	*	*	*	*	*
16F\LL	.	16B- 16G\	.	16e 16c/	na-	.	.	.	.	.	.	.
*	*	*Xrep	*	*Xrep	*	*	*	*	*	*	*	*
*	*	*rep	*	*rep	*	*	*	*	*	*	*	*
16c\	.	16B- 16G\	.	16e 16c/	-szej	.	.	.	.	.	.	.
*	*	*Xrep	*	*Xrep	*	*	*	*	*	*	*	*
*	*	*rep	*	*rep	*	*	*	*	*	*	*	*
16B-\	8bb-L 8b-\	16B- 16G\	.	16e 16c/	śmier-	.	8ryy	8b-\)	.	.	8bb-\L	.
*	*	*Xrep	*	*Xrep	*	*	*	*	*	*	*	*
*	*	*rep	*	*rep	*	*	*	*	*	*	*	*
16c\JJ	.	16B- 16G\	.	16e 16c/	-ci	.	.	.	.	.	.	.
*Xrep	*	*Xrep	*	*Xrep	*	*	*	*	*	*	*	*
*rep	*	*rep	*	*rep	*	*	*	*	*	*	*	*
16F\LL	8gg 8g\	16B- 16G\	.	16e 16c/	na-	.	8g/	8g\	-mi	.	8gg\	.
*	*	*Xrep	*	*Xrep	*	*	*	*	*	*	*	*
*	*	*rep	*	*rep	*	*	*	*	*	*	*	*
16c\	.	16B- 16G\	.	16e 16c/	-szej	.	.	.	.	.	.	.
*	*	*Xrep	*	*Xrep	*	*	*	*	*	*	*	*
16B-\	8dddJ 8dd\	8B- 8G\	.	8e 8c/	a-	.	8dd/	8dd\	grze-	.	8ddd\J	.
16c\JJ	.	.	.	.	.	.	.	.	.	.	.	.
*Xrep	*	*	*	*	*	*	*	*	*	*	*	*
!!LO:PB:g=original
=42	=42	=42	=42	=42	=42	=42	=42	=42	=42	=42	=42	=42
16F\LL	4ccc 4cc\	8A 8F\	.	8f 8c/	-men	.	4cc/	4cc\	-szne-	.	(4ccc\	.
16c\	.	.	.	.	.	.	.	.	.	.	.	.
16A\	.	8r	.	8r	.	.	.	.	.	.	.	.
16c\JJ	.	.	.	.	.	.	.	.	.	.	.	.
*rep	*	*	*	*	*	*	*	*	*	*	*	*
16F\LL	8aa 8a\	16A 16F\	.	16f 16c/	Świę-	.	8a/	8a\	-mi	.	8aa\)	.
*	*	*rep	*	*rep	*	*	*	*	*	*	*	*
16c\	.	16A 16F\	.	16f 16c/	-ta	.	.	.	.	.	.	.
*	*	*Xrep	*	*Xrep	*	*	*	*	*	*	*	*
*	*	*rep	*	*rep	*	*	*	*	*	*	*	*
16A\	16r	16A 16F\	.	16f 16c/	Ma-	.	16r	16ryy	.	.	16r	.
*	*	*Xrep	*	*Xrep	*	*	*	*	*	*	*	*
*	*	*rep	*	*rep	*	*	*	*	*	*	*	*
16c\JJ	16aaKL 16a\	16A 16F\	.	16f 16c/	-rya	.	16a/KL	16a\KL	te-	.	(16aa\KL	.
*Xrep	*	*Xrep	*	*Xrep	*	*	*	*	*	*	*	*
*rep	*	*rep	*	*rep	*	*	*	*	*	*	*	*
16F\LL	8.ccc 8.cc\	16A 16F\	.	16f 16c/	ma-	.	8.cc/J	8.cc\J	.	.	8.ccc\)	.
*	*	*Xrep	*	*Xrep	*	*	*	*	*	*	*	*
*	*	*rep	*	*rep	*	*	*	*	*	*	*	*
16c\	.	16A 16F\	.	16f 16c/	-tko	.	.	.	.	.	.	.
*	*	*Xrep	*	*Xrep	*	*	*	*	*	*	*	*
*	*	*rep	*	*rep	*	*	*	*	*	*	*	*
16A\	.	16A 16F\	.	16f 16c/	Bo-	.	.	.	.	.	.	.
*	*	*Xrep	*	*Xrep	*	*	*	*	*	*	*	*
*	*	*rep	*	*rep	*	*	*	*	*	*	*	*
16c\JJ	16fffJk 16ff\	16A 16F\	.	16f 16c/	-ża	.	16ff/	16ff\	-raz	.	16fff'\Jk	.
*Xrep	*	*Xrep	*	*Xrep	*	*	*	*	*	*	*	*
=43	=43	=43	=43	=43	=43	=43	=43	=43	=43	=43	=43	=43
16F\LL	4ccc 4cc\	16A 16F\	.	16f 16c/	módl	.	4cc/	4cc\	i	.	(4ccc\	.
*	*	*rep	*	*rep	*	*	*	*	*	*	*	*
16c\	.	16A 16F\	.	16f 16c/	się	.	.	.	.	.	.	.
*	*	*Xrep	*	*Xrep	*	*	*	*	*	*	*	*
*	*	*rep	*	*rep	*	*	*	*	*	*	*	*
16A\	.	16A 16F\	.	16f 16c/	za	.	.	.	.	.	.	.
*	*	*Xrep	*	*Xrep	*	*	*	*	*	*	*	*
*	*	*rep	*	*rep	*	*	*	*	*	*	*	*
16c\JJ	.	16A 16F\	.	16f 16c/	na-	.	.	.	.	.	.	.
*	*	*Xrep	*	*Xrep	*	*	*	*	*	*	*	*
*rep	*	*rep	*	*rep	*	*	*	*	*	*	*	*
!	!	!	!	!	!	!	!	!LO:N:vis=8	!	!	!	!
16F\LL	8aa 8a\	16A 16F\	.	16f 16c/	-mi	.	8.a/	8.a\	w go-	.	8aa\)	.
*	*	*Xrep	*	*Xrep	*	*	*	*	*	*	*	*
*	*	*rep	*	*rep	*	*	*	*	*	*	*	*
16c\	.	16A 16F\	.	16f 16c/	grze-	.	.	.	.	.	.	.
*	*	*Xrep	*	*Xrep	*	*	*	*	*	*	*	*
*	*	*rep	*	*rep	*	*	*	*	*	*	*	*
16A\	16r	16A 16F\	.	16f 16c/	-szne-	.	.	.	.	.	16r	.
*	*	*Xrep	*	*Xrep	*	*	*	*	*	*	*	*
*	*	*rep	*	*rep	*	*	*	*	*	*	*	*
16c\JJ	16aaKL 16a\	16A 16F\	.	16f 16c/	-mi	.	16a/KL	16a\KL	-dzi-	.	(16aa\KL	.
*Xrep	*	*Xrep	*	*Xrep	*	*	*	*	*	*	*	*
*rep	*	*rep	*	*rep	*	*	*	*	*	*	*	*
16F\LL	8.ccc 8.cc\	16A 16F\	.	16f 16c/	te-	.	8.cc/J	8.cc\J	.	.	8.ccc\)	.
*	*	*Xrep	*	*Xrep	*	*	*	*	*	*	*	*
*	*	*rep	*	*rep	*	*	*	*	*	*	*	*
16c\	.	16A 16F\	.	16f 16c/	-raz	.	.	.	.	.	.	.
*	*	*Xrep	*	*Xrep	*	*	*	*	*	*	*	*
*	*	*rep	*	*rep	*	*	*	*	*	*	*	*
16A\	.	16A 16F\	.	16f 16c/	i	.	.	.	.	.	.	.
*	*	*Xrep	*	*Xrep	*	*	*	*	*	*	*	*
*	*	*rep	*	*rep	*	*	*	*	*	*	*	*
16c\JJ	16fffJk 16ff\	16A 16F\	.	16f 16c/	w go-	.	16ff/	16ff\	-nę	.	16fff'\Jk	.
*Xrep	*	*Xrep	*	*Xrep	*	*	*	*	*	*	*	*
!!LO:LB:g=original
=44	=44	=44	=44	=44	=44	=44	=44	=44	=44	=44	=44	=44
16F\LL	(4ccc 4cc\	16A 16F\	.	16f 16c/	-dzi-	.	4cc/	4cc\	śmier-	.	(4ccc\	.
*	*	*rep	*	*rep	*	*	*	*	*	*	*	*
16c\	.	16A 16F\	.	16f 16c/	-nę	.	.	.	.	.	.	.
*	*	*Xrep	*	*Xrep	*	*	*	*	*	*	*	*
*	*	*rep	*	*rep	*	*	*	*	*	*	*	*
16A\	.	16A 16F\	.	16f 16c/	śmier-	.	.	.	.	.	.	.
*	*	*Xrep	*	*Xrep	*	*	*	*	*	*	*	*
*	*	*rep	*	*rep	*	*	*	*	*	*	*	*
16c\JJ	.	16A 16F\	.	16f 16c/	-ci	.	.	.	.	.	.	.
*	*	*Xrep	*	*Xrep	*	*	*	*	*	*	*	*
*rep	*	*rep	*	*rep	*	*	*	*	*	*	*	*
16F\LL	8aa 8a\)	16A 16F\	.	16f 16c/	na-	.	8a/	8a\	-ci	.	8aa\)	.
*	*	*Xrep	*	*Xrep	*	*	*	*	*	*	*	*
*	*	*rep	*	*rep	*	*	*	*	*	*	*	*
16c\	.	16A 16F\	.	16f 16c/	-szej	.	.	.	.	.	.	.
*	*	*Xrep	*	*Xrep	*	*	*	*	*	*	*	*
*	*	*rep	*	*rep	*	*	*	*	*	*	*	*
16A\	16r	16A 16F\	.	16f 16c/	a-	.	16r	16ryy	.	.	16r	.
*	*	*Xrep	*	*Xrep	*	*	*	*	*	*	*	*
*	*	*rep	*	*rep	*	*	*	*	*	*	*	*
16c\JJ	16aaKL 16a\	16A 16F\	.	16f 16c/	-men	.	16a/KL	16a\KL	na-	.	(16aa\KL	.
*Xrep	*	*Xrep	*	*Xrep	*	*	*	*	*	*	*	*
*rep	*	*rep	*	*rep	*	*	*	*	*	*	*	*
16F\LL	8.ccc 8.cc\	16A 16F\	.	16f 16c/	te-	.	8.cc/J	8.cc\J	.	.	8.ccc\)	.
*	*	*Xrep	*	*Xrep	*	*	*	*	*	*	*	*
*	*	*rep	*	*rep	*	*	*	*	*	*	*	*
16c\	.	16A 16F\	.	16f 16c/	-raz	.	.	.	.	.	.	.
*	*	*Xrep	*	*Xrep	*	*	*	*	*	*	*	*
*	*	*rep	*	*rep	*	*	*	*	*	*	*	*
16A\	.	16A 16F\	.	16f 16c/	i	.	.	.	.	.	.	.
*	*	*Xrep	*	*Xrep	*	*	*	*	*	*	*	*
*	*	*rep	*	*rep	*	*	*	*	*	*	*	*
16c\JJ	16fffJk 16ff\	16A 16F\	.	16f 16c/	w go-	.	16ff/	16ff\	-szej	.	16fff'\Jk	.
*Xrep	*	*Xrep	*	*Xrep	*	*	*	*	*	*	*	*
=45	=45	=45	=45	=45	=45	=45	=45	=45	=45	=45	=45	=45
16F\LL	4.ccc 4.cc\	16B- 16G\	.	16e 16c/	-dzi-	.	(4.cc/	4.cc\	a-	.	(4.ccc\	.
*	*	*rep	*	*rep	*	*	*	*	*	*	*	*
16c\	.	16B- 16G\	.	16e 16c/	-nę	.	.	.	.	.	.	.
*	*	*Xrep	*	*Xrep	*	*	*	*	*	*	*	*
*	*	*rep	*	*rep	*	*	*	*	*	*	*	*
16B-\	.	16B- 16G\	.	16e 16c/	śmier-	.	.	.	.	.	.	.
*	*	*Xrep	*	*Xrep	*	*	*	*	*	*	*	*
*	*	*rep	*	*rep	*	*	*	*	*	*	*	*
16c\JJ	.	16B- 16G\	.	16e 16c/	-ci	.	.	.	.	.	.	.
*	*	*Xrep	*	*Xrep	*	*	*	*	*	*	*	*
*rep	*	*rep	*	*rep	*	*	*	*	*	*	*	*
16F\LL	.	16B- 16G\	.	16e 16c/	na-	.	.	.	.	.	.	.
*	*	*Xrep	*	*Xrep	*	*	*	*	*	*	*	*
*	*	*rep	*	*rep	*	*	*	*	*	*	*	*
16c\	.	16B- 16G\	.	16e 16c/	-szej	.	.	.	.	.	.	.
*	*	*Xrep	*	*Xrep	*	*	*	*	*	*	*	*
*	*	*rep	*	*rep	*	*	*	*	*	*	*	*
16B-\	8bb-L 8b-\	16B- 16G\	.	16e 16c/	śmier-	.	8b-/	8b-\	.	.	8bb-\	.
*	*	*Xrep	*	*Xrep	*	*	*	*	*	*	*	*
*	*	*rep	*	*rep	*	*	*	*	*	*	*	*
16c\JJ	.	16B- 16G\	.	16e 16c/	-ci	.	.	.	.	.	.	.
*Xrep	*	*Xrep	*	*Xrep	*	*	*	*	*	*	*	*
*rep	*	*rep	*	*rep	*	*	*	*	*	*	*	*
16F\LL	8gg 8g\	16B- 16G\	.	16e 16c/	na-	.	8g/L	8g\L	.	.	(8gg\L	.
*	*	*Xrep	*	*Xrep	*	*	*	*	*	*	*	*
*	*	*rep	*	*rep	*	*	*	*	*	*	*	*
16c\	.	16B- 16G\	.	16e 16c/	-szej	.	.	.	.	.	.	.
*	*	*Xrep	*	*Xrep	*	*	*	*	*	*	*	*
16B-\	8dddJ 8dd\	8B- 8G\	.	8e 8c/	a-	.	8cc/J)	8cc\J	.	.	8ccc\J))	.
!	!LO:TX:b:t=V&colon;S&colon;	!	!	!	!	!	!	!	!	!	!	!
16c\JJ	.	.	.	.	.	.	.	.	.	.	.	.
*Xrep	*	*	*	*	*	*	*	*	*	*	*	*
*	*	*	*	*	*	*	*v	*v	*	*	*	*
!!LO:PB:g=original
=46	=46	=46	=46	=46	=46	=46	=46	=46	=46	=46	=46
4A 4F\	4ff 4f\	4A 4F\	.	4f 4c/	-men	.	4f/	-men	.	4ff\	.
4r	4r	4r	.	4r	.	.	4r	.	.	4r	.
4r	4r	4r	.	4r	.	.	4r	.	.	4r	.
=47	=47	=47	=47	=47	=47	=47	=47	=47	=47	=47	=47
*	*^	*	*	*	*	*	*	*	*	*	*
*	*	*2\right	*	*	*	*	*	*	*	*	*	*
2D-X/	2b-/	2.f\	4B- 4D-X\	.	4b- 4f/	módl	.	4b-\	módl	<	2.r	.
.	.	.	4B- 4D-\	.	4b- 4f/	się	.	4b-\	się	.	.	.
4BB-/	4dd-X 4b-/	.	4B- 4BB-\	.	4dd-X 4f/	za	.	4dd-X\	za	[	.	.
*	*v	*v	*	*	*	*	*	*	*	*	*	*
=48	=48	=48	=48	=48	=48	=48	=48	=48	=48	=48	=48
*	*	*^	*	*	*	*	*	*	*	*	*
*	*	*	*2\right	*	*2\right	*	*	*	*	*	*	*
!	!	!	!	!	!	!	!	!	!	!LO:DY:rj	!	!
[2.F [2.FF/	2.ff 2.a 2.f\	2.A/	2.F\	.	2.ff 2.f\	na-	.	2.cc\	na-	f	2.r	.
*	*	*v	*v	*	*	*	*	*	*	*	*	*
=49	=49	=49	=49	=49	=49	=49	=49	=49	=49	=49	=49
!	!LO:TX:t=P:problem:mixedbeam	!	!	!	!	!	!	!	!	!	!
8F]L 8FF/]	8ffL 8a 8f\	4A 4F\	.	4ff 4f\	-mi.	.	4cc\	-mi.	.	16ff\LL	.
.	.	.	.	.	.	.	.	.	.	16aa\	.
[8FF/J	8cJ 8A/	.	.	.	.	.	.	.	.	16ccc\	.
.	.	.	.	.	.	.	.	.	.	16fff\JJ	.
[2F 2FF/_	4d 4B-/	4r	.	4r	.	.	4r	.	.	16ddd\LL	.
.	.	.	.	.	.	.	.	.	.	16bb-\	.
.	.	.	.	.	.	.	.	.	.	16ff\	.
.	.	.	.	.	.	.	.	.	.	16fff\JJ	.
.	4e 4B- 4G/	4r	.	4r	.	.	4r	.	.	16eee\LL	.
.	.	.	.	.	.	.	.	.	.	16ccc\	.
.	.	.	.	.	.	.	.	.	.	16bb-\	.
.	.	.	.	.	.	.	.	.	.	16gg\JJ	.
!!LO:LB:g=original
=50	=50	=50	=50	=50	=50	=50	=50	=50	=50	=50	=50
8F]L 8FF/]	8fL 8c 8A/	2.ryy	.	2.ryy	.	.	2.ryy	.	.	16ff\LL	.
.	.	.	.	.	.	.	.	.	.	16aa\	.
8FF/J	8cJ 8A/	.	.	.	.	.	.	.	.	16ccc\	.
.	.	.	.	.	.	.	.	.	.	16fff\JJ	.
[>2F [2FF\	4d 4B-/	.	.	.	.	.	.	.	.	16ddd\LL	.
.	.	.	.	.	.	.	.	.	.	16bb-\	.
.	.	.	.	.	.	.	.	.	.	16ff\	.
.	.	.	.	.	.	.	.	.	.	16fff\JJ	.
.	4e 4c 4B-< 4G</	.	.	.	.	.	.	.	.	16eee\LL	.
.	.	.	.	.	.	.	.	.	.	16ccc\	.
.	.	.	.	.	.	.	.	.	.	16bb-\	.
.	.	.	.	.	.	.	.	.	.	16gg\JJ	.
=51	=51	=51	=51	=51	=51	=51	=51	=51	=51	=51	=51
2.F] 2.FF\]	2f 2c 2A</	2.ryy	.	2.ryy	.	.	2.ryy	.	.	8.ff\L	.
.	.	.	.	.	.	.	.	.	.	(32cc\LL	.
.	.	.	.	.	.	.	.	.	.	32aa\JJJ)	.
*	*	*	*	*	*	*	*	*	*	*rep	*
.	.	.	.	.	.	.	.	.	.	8.ff\L	.
.	.	.	.	.	.	.	.	.	.	(32cc\LL	.
.	.	.	.	.	.	.	.	.	.	32aa\JJJ)	.
*	*	*	*	*	*	*	*	*	*	*Xrep	*
.	4e 4c 4B-< 4G</	.	.	.	.	.	.	.	.	8.gg\L	.
.	.	.	.	.	.	.	.	.	.	(32cc\LL	.
.	.	.	.	.	.	.	.	.	.	32ccc\JJJ)	.
=52	=52	=52	=52	=52	=52	=52	=52	=52	=52	=52	=52
*rep	*rep	*	*	*	*	*	*	*	*	*rep	*
2.F 2.FF\	2f 2c 2A</	2.ryy	.	2.ryy	.	.	2.ryy	.	.	8.ff\L	.
.	.	.	.	.	.	.	.	.	.	(32cc\LL	.
.	.	.	.	.	.	.	.	.	.	32aa\JJJ)	.
.	.	.	.	.	.	.	.	.	.	8.ff\L	.
.	.	.	.	.	.	.	.	.	.	(32cc\LL	.
.	.	.	.	.	.	.	.	.	.	32aa\JJJ)	.
.	4e 4c 4B-< 4G</	.	.	.	.	.	.	.	.	8.gg\L	.
.	.	.	.	.	.	.	.	.	.	(32cc\LL	.
.	.	.	.	.	.	.	.	.	.	32ccc\JJJ)	.
*Xrep	*Xrep	*	*	*	*	*	*	*	*	*Xrep	*
!!LO:PB:g=original
=53	=53	=53	=53	=53	=53	=53	=53	=53	=53	=53	=53
!	!LO:N:vis=4	!	!	!	!	!	!	!	!	!	!
8F 8FF/	(4.f 4.c 4.A/	2.ryy	.	2.ryy	.	.	2.ryy	.	.	(4.ff\	.
8r	.	.	.	.	.	.	.	.	.	.	.
[2c [2A [>2F\	.	.	.	.	.	.	.	.	.	.	.
.	&(16e/LL	.	.	.	.	.	.	.	.	16ee\LL	.
.	16f/JJ)	.	.	.	.	.	.	.	.	16ff\JJ)	.
!	!LO:TUP:b:problem:klamra łukowa	!	!	!	!	!	!	!	!	!LO:TUP:a	!
.	24a/LL	.	.	.	.	.	.	.	.	(24aa\LL	<
.	24g#X/	.	.	.	.	.	.	.	.	24gg#X\	.
.	24a/JJ	.	.	.	.	.	.	.	.	24aa\JJ	.
!	!LO:TUP:a:problem:klamra łukowa	!	!	!	!	!	!	!	!	!LO:TUP:a	!
.	24cc\LL	.	.	.	.	.	.	.	.	24ccc\LL	.
.	24bn\	.	.	.	.	.	.	.	.	24bbn\	.
.	24cc\JJ	.	.	.	.	.	.	.	.	24ccc\JJ	.
=54	=54	=54	=54	=54	=54	=54	=54	=54	=54	=54	=54
8c] 8A] 8F\]	8ff\&)	2.ryy	.	2.ryy	.	.	2.ryy	.	.	8fff\)	[
8r	8r	.	.	.	.	.	.	.	.	8r	.
!	!	!	!	!	!	!	!	!	!	!	!LO:DY:rj
4F 4FF/	4ff 4a 4f\	.	.	.	.	.	.	.	.	4fff 4a\	f
4r;	4r;	.	.	.	.	.	.	.	.	4r;	.
==	==	==	==	==	==	==	==	==	==	==	==
*-	*-	*-	*-	*-	*-	*-	*-	*-	*-	*-	*-
!!!system-decoration: s1,s2{(g1)}{(s5,s6)}
!!!RDF**kern: > = above
!!!RDF**kern: < = below
!!!RDF**kern: | = vertical stroke
!!!RDF**dynam: p = "p."
!!!ENC: Marta Lawrence
!!!END: 2021-06-13
!!!ENC: Anastazja Marusiak
!!!END: 2021-06-04
